src/icons/left-nav/resources_inactive.svg

<svg width="20" height="20" viewBox="0 0 20 20" fill="none" xmlns="http://www.w3.org/2000/svg"><path d="M10 5.03501C8.62634 3.80281 6.84533 3.12246 5 3.12501C4.12333 3.12501 3.28167 3.27501 2.5 3.55167V15.4267C3.30302 15.1434 4.14847 14.9991 5 15C6.92083 15 8.67333 15.7225 10 16.91M10 5.03501C11.3736 3.80274 13.1547 3.12238 15 3.12501C15.8767 3.12501 16.7183 3.27501 17.5 3.55167V15.4267C16.697 15.1434 15.8515 14.9991 15 15C13.1547 14.9975 11.3737 15.6778 10 16.91M10 5.03501V16.91" stroke="#212121" stroke-width="1.5" stroke-linecap="round" stroke-linejoin="round"></path></svg>

<svg xmlns="http://www.w3.org/2000/svg" width="20" height="20" fill="none"><path stroke="#212121" stroke-linecap="round" stroke-linejoin="round" stroke-width="1.5" d="M10 5.035a7.473 7.473 0 0 0-5-1.91 7.48 7.48 0 0 0-2.5.427v11.875A7.49 7.49 0 0 1 5 15c1.92 0 3.673.723 5 1.91m0-11.875a7.472 7.472 0 0 1 5-1.91c.877 0 1.718.15 2.5.427v11.875A7.49 7.49 0 0 0 15 15a7.473 7.473 0 0 0-5 1.91m0-11.875V16.91"/></svg>
